!!!OTL: The Stars and Stripes Forever
!!!COM: Sousa, John Philip
!!!ODT: unknown
!!!YOR: Piano Bench of Easy Classical Music
!!!YOY: 2000
!!!AST: Patriotic song
!!!YEC: Brian Luke, 2001
**kern	**harm
*k[f#]	*k[f#]
*M4/4	*M4/4
*G:	*G:
*>A	*>A
4dd	.
=1	=1
2dd	I
4cc	.
4b	.
=2	=2
2b	.
4a#	.
4b	.
=3	=3
[1b	.
=4	=4
2b]	.
4a#	.
4b	.
=5	=5
2b	.
4a#	.
4b	.
=6	=6
2dd	.
4.b	.
8dd	.
=7	=7
1cc	V7
=8	=8
2a	.
*>B	*>B
2a	.
=9	=9
2a	.
4g#	.
4a	.
=10	=10
2a	.
4g#	.
4a	.
=11	=11
[1cc	.
=12	=12
2cc]	.
4b	.
4a	.
=13	=13
4b	I
2.dd	.
=14	=14
2.ee	IV
4ee	.
=15	=15
[1a	V7
=16	=16
2a]	.
*>A'	*>A'
2dd	.
=17	=17
2dd	I
4cc	.
4b	.
=18	=18
2b	.
4a#	.
4b	.
=19	=19
[1b	.
=20	=20
2b]	.
4a#	.
4b	.
=21	=21
2b	V7/vi
4a#	.
4b	.
=22	=22
4cc	.
4b	.
4.a	.
8f#	.
=23	=23
1a	vi
=24	=24
2g	.
*>C	*>C
2g	.
=25	=25
2g	viio7/V
4f#	.
4g	.
=26	=26
2b-	.
4a	.
4g	.
=27	=27
[1gg	Ic
=28	=28
4gg]	.
4g	.
4a	.
4b	.
=29	=29
4dd	I
4g	.
4a	.
4b	.
=30	=30
4dd	.
4d	.
4e	.
4b	.
=31	=31
1a	V7
=32	=32
4g	I;
2r	.
*-	*-
